X:1
T:Old Peculier
M:6/8
C:Peter T. Kleeman
S:
N:1985, as presented to Jim Morrison
A:Bledington
O:Virginia
R:Jig
%:NoTeX
%:NoWWW
K:G
I:speed 500
P:A
A  | B>AG Bcd | e2e  d2g | d>cB AGA | Bcd  A2A  |\
     B>AG Bcd | e2e  d2g | d>cB ABA | G3   G2 z |
P:B
%
     e3   d2g | d>cB ABc | d>cB A2A | e>de d2g  |\
     d>cB ABc | B>AG E3  | G>AB ABA | G3   G2 z |
